Sources/FrostedUI/Resources/Icons.xcassets/sealExclamationFilled16.imageset/seal-exclamation-filled-16.svg

<svg width="16" height="16" viewBox="0 0 16 16" fill="none" xmlns="http://www.w3.org/2000/svg" data-fui-icon="true">
  <g clip-path="url(#clip0_6097_496)">
    <path
      d="M8.00293 -0.00683594C8.7443 -0.00683594 9.406 0.32977 9.8457 0.858398C10.0759 1.1352 10.3502 1.38625 10.6826 1.52441C11.0161 1.66287 11.3856 1.67724 11.7451 1.64355C12.4308 1.57942 13.1379 1.80905 13.6631 2.33398C14.1876 2.85855 14.4168 3.56491 14.3535 4.25C14.3202 4.61008 14.3348 4.97959 14.4736 5.31348C14.6118 5.64553 14.8626 5.91987 15.1387 6.15039C15.6654 6.59017 16.001 7.25126 16.001 7.99121C16.0008 8.729 15.6669 9.38767 15.1426 9.82715C14.8656 10.0594 14.6143 10.3352 14.4756 10.6689C14.3359 11.0049 14.3214 11.3769 14.3545 11.7393C14.4169 12.4235 14.187 13.1295 13.6631 13.6533C13.1384 14.1776 12.4319 14.4056 11.7471 14.3418C11.3861 14.3082 11.0155 14.323 10.6807 14.4619C10.3476 14.6001 10.073 14.8512 9.8418 15.1279C9.40223 15.6539 8.74219 15.9893 8.00293 15.9893C7.26081 15.9892 6.59879 15.6506 6.15918 15.1211C5.93078 14.846 5.65836 14.5969 5.32812 14.46C4.99661 14.3225 4.62976 14.3081 4.27246 14.3418C3.58601 14.4065 2.87724 14.178 2.35156 13.6523C1.82811 13.1286 1.59895 12.4232 1.66113 11.7393C1.69394 11.3786 1.67896 11.0082 1.54004 10.6738C1.40117 10.3398 1.14823 10.0644 0.870117 9.83301C0.341906 9.39339 0.00501221 8.73215 0.00488281 7.99121C0.00489856 7.24795 0.344137 6.58444 0.875 6.14453C1.15207 5.91492 1.40279 5.64082 1.54102 5.30859C1.6792 4.97625 1.69408 4.60842 1.66113 4.25C1.59813 3.56552 1.82773 2.85927 2.35156 2.33496C2.87782 1.8087 3.58812 1.57837 4.27539 1.64355C4.63109 1.67726 4.99619 1.66335 5.32617 1.52637C5.65592 1.38945 5.92787 1.1405 6.15527 0.865234C6.59501 0.332934 7.2586 -0.00674603 8.00293 -0.00683594ZM8 9.5C7.44772 9.5 7 9.94771 7 10.5C7 11.0523 7.44772 11.5 8 11.5C8.55229 11.5 9 11.0523 9 10.5C9 9.94771 8.55229 9.5 8 9.5ZM8 3.75C7.58579 3.75 7.25 4.08579 7.25 4.5V7.5C7.25 7.91421 7.58579 8.25 8 8.25C8.41421 8.25 8.75 7.91421 8.75 7.5V4.5C8.75 4.08579 8.41421 3.75 8 3.75Z"
      fill="currentColor"
    />
  </g>
  <defs>
    <clipPath id="clip0_6097_496"><path fill="currentColor" d="M0 0H16V16H0z" /></clipPath>
  </defs>
</svg>

<svg xmlns="http://www.w3.org/2000/svg" width="16" height="16" fill="none" data-fui-icon="true" viewBox="0 0 16 16"><g clip-path="url(#a)"><path fill="currentColor" d="M8.003-.007a2.39 2.39 0 0 1 1.843.865c.23.277.504.528.837.666.333.139.703.153 1.062.12a2.39 2.39 0 0 1 1.918.69 2.39 2.39 0 0 1 .69 1.916c-.033.36-.018.73.12 1.063.139.333.39.607.666.837a2.392 2.392 0 0 1 .004 3.677c-.277.232-.529.508-.667.842-.14.336-.155.708-.122 1.07a2.39 2.39 0 0 1-2.607 2.603c-.36-.034-.732-.019-1.066.12-.333.138-.608.39-.84.666a2.39 2.39 0 0 1-3.682-.007c-.228-.275-.5-.524-.83-.661-.332-.138-.7-.152-1.057-.118a2.39 2.39 0 0 1-2.61-2.603c.032-.36.017-.73-.122-1.065s-.392-.61-.67-.841a2.393 2.393 0 0 1 .005-3.688c.277-.23.528-.504.666-.836.138-.333.153-.7.12-1.059a2.394 2.394 0 0 1 2.614-2.606c.356.033.721.02 1.051-.118s.602-.385.83-.66a2.39 2.39 0 0 1 1.847-.873M8 9.5a1 1 0 1 0 0 2 1 1 0 0 0 0-2m0-5.75a.75.75 0 0 0-.75.75v3a.75.75 0 0 0 1.5 0v-3A.75.75 0 0 0 8 3.75"/></g><defs><clipPath id="a"><path fill="currentColor" d="M0 0h16v16H0z"/></clipPath></defs></svg>
